!!!SOCIAL_FUNCTION:	isleta
!!!PDT:	1957
!!!OTL: No_47_Corn-grinding_Song_(b).krn
!!!LING_GROUP: Keresan
!!!LANG: Tone
!!!REG: Southwest
**kern
*staff1
=1-
*clefF4
*k[]
*M3/4
4c\
4c\
8.c\L
16A\Jk
=2
4c\
4c\
8c\
8r
=3!|:
*M2/4
4c\
8c\L
8c\J
=4
4c\
8A\L
8G\J
=5
8G\
8r
8c\L
16d\L
16c\JJ
=6
16d\LL
16c\J
8c\J
8.c\L
16A\Jk
=7
16c\LK
8.A\J
8.A\L
16G\Jk
=8
*M3/4
8A\L
16G\L
16F\JJ
8E/L
8C/J
8E\
8r
=9
8E/L
8C/J
8C/L
8E/J
8C/L
8G/J
=10
*M2/4
8.c\L
16A\Jk
16G\LL
16E\J
8G\J
=11
16A\LK
8.G\J
8.G\L
16E\Jk
=12
16G\LK
8.E\J
8C/L
8E/J
=13
8A\L
8G\J
24G\LL
24E\
24E\JJ
24G\LL
24E\
24E\JJ
=14
8C/L
8C/J
8C/
8r
=15
16E/LK
8.C/J
4C/
=16
16E/LK
8.C/J
4C/
=17
8r
8C/
4C/
=18:|!
=
8.c\L
16A\Jk
16G\LL
16E\J
8G\J
=19
16A\LK
8.G\J
8.G\L
16E\Jk
=20
16G\LK
8.E\J
8C/L
8E/J
=21
8A\L
8G\J
24G\LL
24E\
24E\JJ
24G\LL
24E\
24E\JJ
=22
8C/L
8C/J
8C/
8r
=23
16E/LK
8.C/J
4C/
=24
16E/LK
8.C/J
4C/
=25
8r
8C/
4C/
=26:|!
4c\
8c\L
8c\J
=27
4c\
8A\L
8G\J
=28
8G\
8r
8c\L
16d\L
16c\JJ
=29
16d\LL
16c\J
8c\J
8.c\L
16A\Jk
=30
16c\LK
8.A\J
16A\LK
8.G\J
=31
*M3/4
8A\L
16G\L
16E\JJ
8E/L
8C/J
8E\
8r
=32
8C/L
8C/J
8C/L
8E/J
8C/L
8G/J
=33
*M2/4
8.c\L
16A\Jk
16G\LL
16E\J
8G\J
=34
16A\LK
8.G\J
8.G\L
16E\Jk
=35
16G\LK
8.E\J
8C/L
8E/J
=36
8A\L
8G\J
24G\LL
24E\
24E\JJ
24G\LL
24E\
24E\JJ
=37
8C/L
8C/J
8C/
8r
=38
16E/LK
8.C/J
4C/
=39
16E/LK
8.C/J
4C/
=40
8r
8C/
4C/
=41
*M3/4
8G\L
8G\J
16E/LL
16E/
16C/
16C/JJ
8E\L
8G\J
=42
*M2/4
16E/LK
8.C/J
8C/
8r
=43
8C/L
8E/J
8C/L
8AA/J
=44
8C/L
8C/J
8C/L
8C/J
=45
*M3/4
8C/L
8G/J
16G\LK
8.E\J
8C/
8r
=46
!!pagebreak:default
16E/LL
16C/J
8C/J
16E/LL
16C/
16.C/
32C/JJk
8E\L
8G\J
=47
8C/L
8C/J
8C/L
8C/J
8C/L
8C/J
==
*-
